22x22/apps/re.sonny.Tangram.svg

<svg xmlns="http://www.w3.org/2000/svg" style="enable-background:new" width="22" height="22" version="1.0">
 <path style="opacity:0.2" d="M 2.538086,1.5 C 2.1119321,1.5 1.7272955,1.6711419 1.4492188,1.9492188 1.1711418,2.2272956 1,2.6119321 1,3.0380859 V 19.961914 c 0,0.426154 0.1711418,0.81079 0.4492188,1.088867 C 1.7272955,21.328858 2.1119321,21.5 2.538086,21.5 H 11 19.461914 C 20.314221,21.5 21,20.814222 21,19.961914 V 11.5 3.0380859 C 21,2.6119321 20.828858,2.2272956 20.550781,1.9492188 20.272704,1.6711419 19.888068,1.5 19.461914,1.5 Z"/>
 <path style="fill:#ff6288" d="m 2.5384616,0.9999997 c -0.4261539,0 -0.8107904,0.1715176 -1.0888671,0.4495944 L 11,11 20.550405,1.4495941 C 20.272329,1.1715173 19.887692,0.9999997 19.461538,0.9999997 Z"/>
 <path style="fill:#615dfa" d="M 1.4495945,1.4495941 C 1.1715175,1.7276711 1,2.1123074 1,2.5384613 V 19.461538 c 0,0.426154 0.1715175,0.810791 0.4495945,1.088868 L 11,11 Z"/>
 <path style="fill:#ace63b" d="M 20.550405,1.4495941 16,5.9999995 21,11 V 2.5384613 C 21,2.1123074 20.828482,1.7276711 20.550405,1.4495941 Z"/>
 <rect style="fill:#fbfafa" width="7.071" height="7.071" x="0" y="15.56" transform="rotate(-45)"/>
 <path style="fill:#3ede9b" d="M 21,11 11,21 h 8.461538 C 20.313846,21 21,20.313846 21,19.461538 Z"/>
 <path style="fill:#ffb11a" d="M 15.999995,15.999998 H 6 l 5,-5 z"/>
 <path style="fill:#fff477" d="m 6,16 -4.5504055,4.550406 c 0.2780767,0.278077 0.6627132,0.449595 1.0888671,0.449595 H 11 L 16,16 Z"/>
 <path style="opacity:0.1" d="M 1.8671875,1.6601562 C 1.7128005,1.735131 1.5690356,1.8294018 1.4492188,1.9492188 1.3294017,2.0690358 1.235131,2.2128005 1.1601562,2.3671875 L 10.292969,11.5 1.1601562,20.632812 c 0.074975,0.154387 0.1692455,0.298152 0.2890626,0.417969 0.1198168,0.119817 0.2635817,0.214088 0.4179687,0.289063 L 5.7070312,17.5 h 8.5859378 l -4,4 H 11 11.707031 L 21,12.207031 v -0.703125 l 0.002,-0.002 L 21,11.5 V 10.792969 L 16.707031,6.5 20.839844,2.3671875 C 20.764869,2.2128005 20.670598,2.0690358 20.550781,1.9492188 20.430965,1.8294017 20.287199,1.735131 20.132812,1.6601562 L 11,10.792969 Z M 16,7.2070312 20.292969,11.5 16,15.792969 11.707031,11.5 Z M 11,12.207031 15.292969,16.5 H 6.7070312 Z"/>
 <path style="fill:#17191e" d="M 1.8671875 1.1601562 C 1.7128005 1.235131 1.5690356 1.3294018 1.4492188 1.4492188 C 1.3294017 1.5690358 1.235131 1.7128005 1.1601562 1.8671875 L 10.292969 11 L 1.1601562 20.132812 C 1.235131 20.287199 1.3294017 20.430964 1.4492188 20.550781 C 1.5690356 20.670598 1.7128005 20.764869 1.8671875 20.839844 L 5.7070312 17 L 14.292969 17 L 10.292969 21 L 11 21 L 11.707031 21 L 21 11.707031 L 21 11.003906 L 21.001953 11.001953 L 21 11 L 21 10.292969 L 16.707031 6 L 20.839844 1.8671875 C 20.764869 1.7128005 20.670598 1.5690358 20.550781 1.4492188 C 20.430965 1.3294017 20.287199 1.235131 20.132812 1.1601562 L 11 10.292969 L 1.8671875 1.1601562 z M 16 6.7070312 L 20.292969 11 L 16 15.292969 L 11.707031 11 L 16 6.7070312 z M 11 11.707031 L 15.292969 16 L 6.7070312 16 L 11 11.707031 z"/>
 <path style="opacity:0.2;fill:#f4f4f7" d="M 2.538086,1 C 2.1119321,1 1.7272955,1.1711419 1.4492188,1.4492188 1.1711418,1.7272956 1,2.1119321 1,2.538086 V 3.0380859 C 1,2.6119321 1.1711418,2.2272956 1.4492188,1.9492188 1.7272955,1.6711419 2.1119321,1.5 2.538086,1.5 h 16.923828 c 0.426154,0 0.81079,0.1711419 1.088867,0.4492188 C 20.828858,2.2272956 21,2.6119321 21,3.0380859 V 2.538086 C 21,2.1119321 20.828858,1.7272956 20.550781,1.4492188 20.272704,1.1711419 19.888068,1 19.461914,1 Z"/>
</svg>

<svg xmlns="http://www.w3.org/2000/svg" style="enable-background:new" width="22" height="22" version="1.0"><path style="opacity:.2" d="M2.538 1.5A1.533 1.533 0 0 0 1 3.038v16.924A1.533 1.533 0 0 0 2.538 21.5h16.924c.852 0 1.538-.686 1.538-1.538V3.038A1.533 1.533 0 0 0 19.462 1.5z"/><path style="fill:#ff6288" d="M2.538 1c-.426 0-.81.172-1.088.45L11 11l9.55-9.55A1.534 1.534 0 0 0 19.462 1z"/><path style="fill:#615dfa" d="M1.45 1.45c-.278.278-.45.662-.45 1.088v16.924c0 .426.172.81.45 1.088L11 11z"/><path style="fill:#ace63b" d="M20.55 1.45 16 6l5 5V2.538c0-.426-.172-.81-.45-1.088z"/><path style="fill:#fbfafa" transform="rotate(-45)" d="M0 15.56h7.071v7.071H0z"/><path style="fill:#3ede9b" d="M21 11 11 21h8.462c.852 0 1.538-.686 1.538-1.538z"/><path style="fill:#ffb11a" d="M16 16H6l5-5z"/><path style="fill:#fff477" d="m6 16-4.55 4.55c.278.278.662.45 1.088.45H11l5-5z"/><path style="opacity:.1" d="M1.867 1.66c-.154.075-.298.17-.418.29-.12.119-.214.263-.289.417l9.133 9.133-9.133 9.133c.075.154.17.298.29.418.119.12.263.214.417.289l3.84-3.84h8.586l-4 4h1.414L21 12.207v-.703l.002-.002L21 11.5v-.707L16.707 6.5l4.133-4.133a1.533 1.533 0 0 0-.29-.418 1.533 1.533 0 0 0-.417-.289L11 10.793zM16 7.207l4.293 4.293L16 15.793 11.707 11.5zm-5 5 4.293 4.293H6.707z"/><path style="fill:#17191e" d="M1.867 1.16c-.154.075-.298.17-.418.29-.12.119-.214.263-.289.417L10.293 11 1.16 20.133c.075.154.17.298.29.418.119.12.263.214.417.289L5.707 17h8.586l-4 4h1.414L21 11.707v-.703l.002-.002L21 11v-.707L16.707 6l4.133-4.133a1.533 1.533 0 0 0-.29-.418 1.533 1.533 0 0 0-.417-.289L11 10.293 1.867 1.16zM16 6.707 20.293 11 16 15.293 11.707 11 16 6.707zm-5 5L15.293 16H6.707L11 11.707z"/><path style="opacity:.2;fill:#f4f4f7" d="M2.538 1A1.533 1.533 0 0 0 1 2.538v.5A1.533 1.533 0 0 1 2.538 1.5h16.924A1.533 1.533 0 0 1 21 3.038v-.5A1.533 1.533 0 0 0 19.462 1z"/></svg>
